X:1
T:Tico-Tico No Fub\'a
R:misc
C:Zequinha de Abreu (1880-1935), Brazil
Z:id:hn-misc-1
M:4/4
L:1/8
Q:1/4=200
K:Am
|: e^de | fe2a ze^de | fe2^g ze^de | fe=d'b ^ged^c | =c4 za^g=g|
fa2d' zc'af | ea2c' zc'ba |1 bB^d^f ac'ba | ^g4 z :|2 be^gb e'd'c'b | a4 z ||
|: ba^g | =gceg ceg^g | a2f2 zba^g | =gBdf Bdfg | a2e2 zc'c'c' |
c'bbb zaaa | afff zbbb | bggb affa | g4 zba^g |
=gceg ceg^g | a2f2 zba^g | =gBdf Bdfg | a2e2 zc'b_b |
a^gab d'c'bc' | e'=gc'e' g'^f'=f'e' | d'c'ba gfed | c4 z :|
K:A
|: Ace | aAcg zAce | fAce zAce | fAce zAce | fBde zBde |
aBdg zBde | fBde zBde | aBdg zBde | fAce zAce |
aAcg zAce | fAce zAce | fec^A fec^A | B^ABc d3z |
dcde fgab | c'd'^d'e' f'e'=d'c' | bagf edcB | A4 z :|

